X:1
T:Margot, labourez les vignes
T:Jacques Arcadelt (1505-1568)
T:1554
%%score 1 2 3 4
L:1/8
Q:1/4=216
M:2/2
K:G
V:1 treble nm="Soprano" snm="S."
V:2 treble nm="Alto" snm="A."
V:3 treble-8 nm="Tenor" snm="T."
V:4 bass nm="Basse" snm="B."
V:1
|: G2 B2 A2 G2 | A2 B2 A2 G2 | B2 B2 d2 d2 | c2 c2 B2 G2- | G2 B2 A2 G2 | F2 B2 A2 G2- | %6
w: Mar got la bou|rez les vi gnes,|vig nes, vi gnes|vig no let, Mar|* got la bou|rez les vi gnes|
w: ||||||
w: ||||||
w: ||||||
w: ||||||
 G2 F2 G4- | G4 z4 | z8 | z8 | G2 G2 d2 d2 | d2 d2 e2 e2 | d4 B4 | B2 d2 c2 B2 | A2 G2 F2 D2 | %15
w: * bien tôt.||||1°~En re ve nant|de Lor rai ne,|Mar got,|Ren con trai trois|ca pi tai nes,|
w: ||||2°~Ils m'ont ap pel|lés vi lai ne,|Mar got.|Je ne suis pas|si vi lai ne,|
w: ||||3°~Je ne suis pas|si vi lai ne,|Mar got.|Puis que le fils|du roi m'ai me,|
w: ||||4°~Il m'a don né|pour etr en ne,|Mar got,|Un bou quet de|mar jo lai ne,|
w: ||||5°~S'il fleu rit je|se rai rei ne,|Mar got|S'il y meure, je|perds ma pei ne,|
 G2 D2 G2 D2 | G2 A2 B4 | B2 d2 c2 B2 | A2 G2 F2 G2 | A4 G4 :| %20
w: vig nes, vig nes,|vig no let,|Mar got la bou|rez les vig nes|bien tôt|
w: |||||
w: |||||
w: |||||
w: |||||
V:2
|: B2 d2 c2 B2 | A2 G2 F2 D2 | G2 D2 G2 D2 | G2 A2 B4 | B2 d2 c2 B2 | A2 G2 F2 G2 | A4 G4 | %7
w: Mar got~ la bou|rez~ les~ vig nes,~|vig nes,~ vig nes,~|vig no let,~|Mar got~ la bou|rez~ les~ vig nes~|bien tôt.~|
w: |||||||
w: |||||||
w: |||||||
w: |||||||
 G2 G2 d2 d2 | d2 d2 e2 e2 | d4 B4 | B2 G2 A2 B2 | A2 G2 c2 c2 | A4 G4 | z8 | z8 | G2 G2 B2 B2 | %16
w: 1°~En~ re ve nant~|de~ Lor rai ne,~|Mar got,~|En re ve nant~|de~ Lor rai ne,~|Mar got,~|||vig nes,~ vig nes,~|
w: 2°~Ils m'ont ap pel|lés vi lai ne|Mar got,|Ils m'ont ap pel|lés vi lai ne|Mar got,||||
w: 3°~Je ne suis pas|si vi lai ne,|Mar got.|Je ne suis pas|si vi lai ne,|Mar got,||||
w: 4°~Il m'a don né|pour etr en ne,|Mar got,|Il m'a don né|pour etr en ne,|Mar got,||||
w: 5°~S'il fleu rit, je|se rai rei ne,|Mar got,|S'il fleu rit je|se rai rei ne,|Mar got,||||
 c2 A2 G4 | G2 B2 A2 G2 | d2 e2 B2 e2 | d4 G4 :| %20
w: vig no let,~|Mar got~ la bou|rez~ les~ vig nes~|bien tôt.~|
w: ||||
w: ||||
w: ||||
w: ||||
V:3
|: D2 G2 E2 E2 | D2 D2 D2 B,2 | D2 D2 B,2 D2 | E2 F2 G2 D2- | D2 G2 E2 E2 | D2 D2 D2 C2 | D4 B,4- | %7
w: Mar got~ la bou|rez~ les~ vig nes,~|vig nes,~ vig nes,~|vig no let,~ Mar|* got~ la bou|rez~ les~ vig nes~|* tôt.~|
w: |||||||
w: |||||||
w: |||||||
w: |||||||
 B,4 z4 | z8 | z8 | E2 E2 F2 G2 | A2 B2 A2 G2- | G2 F2 G2 D2 | z8 | z8 | z8 | z8 | z8 | z8 | z8 :| %20
w: |||1°~En~ re ve nant~|de~ Lor rai ne,~|~ Mar ~ got.||||||||
w: |||2°~Ils m'ont ap pel|lés vi lai ne,|* Mar * got.||||||||
w: |||3°~Je ne suis pas|si vi lai ne,|* Mar * got.||||||||
w: |||4°~Il m'a don né|pour etr en ne,|* Mar * got.||||||||
w: |||5°~S'il fleu rit, je|se rai rei ne,|* Mar * got.||||||||
V:4
|: G,2 G,2 A,2 E,2 | F,2 G,2 D,2 G,,2 | G,,2 G,,2 G,,2 B,,2 | C,2 A,,2 G,,4 | G,2 G,2 A,2 E,2 | %5
w: Mar got~ la bou|rez~ les~ vig nes,~|vig nes,~ vig nes,~|vig no let,~|* got~ la bou|
w: |||||
w: |||||
w: |||||
w: |||||
 F,2 G,2 D,2 E,2 | D,4 G,,4 | G,2 E,2 F,2 G,2 | G,2 B,2 A,2 G,2 | F,E,G,F, G,4 | E,2 E,2 D,2 G,2 | %11
w: rez~ les~ vig nes~|bien tôt.~|1°~En re ve nant|de Lor rai ne,|Mar * * * got.|En~ re ve nant~|
w: ||2°~Ils m'ont ap pel|lés vi lai ne,|Mar * * * got.|Ils m'ont ap pel|
w: ||3°~Je ne suis pas|si vi lai ne,|Mar * * * got,|Je ne suis pas|
w: ||4°~Il m'a don né|pour etr en ne,|Mar * * * got,|Il m'a don né|
w: ||5°~S'il fleu rit, je|se rai rei ne,|Mar * * * got,|S'il fleu rit je|
 F,2 G,2 C,2 C,2 | D,4 G,,4 | G,2 F,2 E,2 D,2- | D,2 E,2 D,2 B,,2 | B,,2 B,,2 G,,2 G,2 | %16
w: de~ Lor rai ne,~|Mar got,~|Ren con trai~ trois~|ca pi tai nes,~|vig nes,~ vig nes,~|
w: lés vi lai ne,|Mar got,|Je ne suis pas|si vi lai ne,||
w: si vi lai ne,|Mar got|Puis que le fils|du roi m'ai me,||
w: pour etr en ne,|Mar got,|Un bou quet de|mar jo lai ne,||
w: se rai rei ne,|Mar got,|S'il y meure je|perds ma pei ne,||
 E,2 F,2 G,2 D,2- | D,2 D,2 E,2 G,2 | F,2 E,2 D,2 G,2- | G,2 F,2 G,4 :| %20
w: vig no let,~ Mar|* got~ la bou|rez~ les~ vig nes~|bien * tôt.~|
w: ||||
w: ||||
w: ||||
w: ||||

